X:0
T:Round is a Shape
M:C|
C:© Paul Gitlitz 2007
R:Reel
K:A
N:Gordy Euler's response when asked;"What kind of shape are you in"?
"A" cAEA "A/E" cefe|"F#m"agfe "D"dcBA|"A" cAEA "F#m" GAFA| "E"GABc "D"defe|!
"A"cAEA "A/E" cefe|"F#m"agfe "E"fefg|"A"afea "D"fedf|"E7"ecBc "A"A4:|!
|:"F#m"F2 FG AGAB|"F#m/C#"cdcB "A"AGFE|"F#m"FEFG AGAB|"E"cBAG "D"F2 "A"E2|!
"F#m"F2 FG AGAB|"A"cdef  "A/C#"eaeg|"A"afea "D"fedf|"E7"ecBc "A"A4:|!

